src/lib/packages/icons/src/assets/filled/shield-question.svg

<svg width="24" height="24" viewBox="0 0 24 24" fill="none" xmlns="http://www.w3.org/2000/svg">
<path d="M21 5C16 4 14.2221 3.111 12.0181 2C9.77807 3.111 8 4 3 5C3 6.137 3 9.70192 3 10.8889C3 17.5559 8.667 20.889 12 22C15.333 20.889 21 17.5559 21 10.8889C21 9.66392 21 6.194 21 5ZM12.02 16C11.468 16 11.0149 15.552 11.0149 15C11.0149 14.448 11.458 14 12.01 14H12.02C12.573 14 13.02 14.448 13.02 15C13.02 15.552 12.572 16 12.02 16ZM13.344 12.051C12.798 12.415 12.718 12.596 12.71 12.615C12.597 12.917 12.3051 13.1111 11.9971 13.1111C11.9151 13.1111 11.833 13.0971 11.752 13.0691C11.367 12.9311 11.1581 12.522 11.2891 12.135C11.4911 11.537 12.0839 11.088 12.5129 10.802C13.1509 10.379 13.1579 9.95006 13.1079 9.66406C13.0299 9.22306 12.6529 8.84607 12.2109 8.76807C11.8709 8.70607 11.5371 8.79496 11.2781 9.01196C11.0221 9.22696 10.876 9.54102 10.876 9.87402C10.876 10.288 10.54 10.624 10.126 10.624C9.71198 10.624 9.37598 10.288 9.37598 9.87402C9.37598 9.09602 9.71796 8.36304 10.314 7.86304C10.91 7.36304 11.6929 7.15404 12.4709 7.29004C13.5299 7.47604 14.399 8.34505 14.585 9.40405C14.769 10.4581 14.328 11.397 13.344 12.051Z" fill="currentColor"/>
</svg>

<svg xmlns="http://www.w3.org/2000/svg" width="24" height="24" fill="none"><path fill="currentColor" d="M21 5c-5-1-6.778-1.889-8.982-3C9.778 3.111 8 4 3 5v5.889c0 6.667 5.667 10 9 11.111 3.333-1.111 9-4.444 9-11.111V5Zm-8.98 11a1.005 1.005 0 0 1-1.005-1c0-.552.443-1 .995-1h.01a1 1 0 1 1 0 2Zm1.324-3.949c-.546.364-.626.545-.634.564a.767.767 0 0 1-.713.496.747.747 0 0 1-.708-.976c.202-.598.795-1.047 1.224-1.333.638-.423.645-.852.595-1.138a1.139 1.139 0 0 0-.897-.896 1.123 1.123 0 0 0-1.335 1.106.75.75 0 0 1-1.5 0c0-.778.342-1.511.938-2.011a2.634 2.634 0 0 1 2.157-.573 2.645 2.645 0 0 1 2.114 2.114c.184 1.054-.257 1.993-1.241 2.647Z"/></svg>
